src/Objs/ProductsOverview/thumbnail.svg

<svg viewBox="0 0 150 100" fill="none" xmlns="http://www.w3.org/2000/svg">
<g id="product-overview">
<g id="Group 32">
<rect id="Rectangle 8" opacity="0.25" x="19" y="71" width="113" height="20" rx="2" fill="#AAAAAA"/>
<g id="Group 13">
<rect id="Rectangle 6" opacity="0.55" x="19" y="10" width="113" height="12" rx="2" fill="#AAAAAA"/>
<path id="Vector" d="M40 16L51 16" stroke="#AAAAAA" stroke-width="4" stroke-linecap="round" stroke-linejoin="bevel"/>
<path id="Vector_2" d="M64 16L78 16" stroke="#AAAAAA" stroke-width="4" stroke-linecap="round" stroke-linejoin="bevel"/>
<path id="Vector_3" d="M89 16L102 16" stroke="#AAAAAA" stroke-width="4" stroke-linecap="round" stroke-linejoin="bevel"/>
<path id="Vector_4" d="M29 19C30.6569 19 32 17.6569 32 16C32 14.3431 30.6569 13 29 13C27.3431 13 26 14.3431 26 16C26 17.6569 27.3431 19 29 19Z" fill="#AAAAAA"/>
</g>
<g id="Group 17">
<path id="Vector_5" d="M25 77H41" stroke="#AAAAAA" stroke-width="3" stroke-linecap="round" stroke-linejoin="bevel"/>
<g id="Group 15">
<path id="Vector_6" d="M28 82H41" stroke="#AAAAAA" stroke-width="2" stroke-linecap="round" stroke-linejoin="bevel"/>
<path id="Vector_7" d="M24.0494 83L24.9218 82.1949C25.0261 82.0987 25.0261 81.9418 24.9218 81.8506L24 81" stroke="#AAAAAA" stroke-linecap="round" stroke-linejoin="round"/>
</g>
<g id="Group 16">
<path id="Vector_8" d="M28 86H39" stroke="#AAAAAA" stroke-width="2" stroke-linecap="round" stroke-linejoin="bevel"/>
<path id="Vector_9" d="M24.0494 87L24.9218 86.1949C25.0261 86.0987 25.0261 85.9418 24.9218 85.8506L24 85" stroke="#AAAAAA" stroke-linecap="round" stroke-linejoin="round"/>
</g>
</g>
<g id="Group 18">
<path id="Vector_10" d="M50 77H66" stroke="#AAAAAA" stroke-width="3" stroke-linecap="round" stroke-linejoin="bevel"/>
<g id="Group 15_2">
<path id="Vector_11" d="M53 82H66" stroke="#AAAAAA" stroke-width="2" stroke-linecap="round" stroke-linejoin="bevel"/>
<path id="Vector_12" d="M49.0494 83L49.9218 82.1949C50.0261 82.0987 50.0261 81.9418 49.9218 81.8506L49 81" stroke="#AAAAAA" stroke-linecap="round" stroke-linejoin="round"/>
</g>
<g id="Group 16_2">
<path id="Vector_13" d="M53 86H64" stroke="#AAAAAA" stroke-width="2" stroke-linecap="round" stroke-linejoin="bevel"/>
<path id="Vector_14" d="M49.0494 87L49.9218 86.1949C50.0261 86.0987 50.0261 85.9418 49.9218 85.8506L49 85" stroke="#AAAAAA" stroke-linecap="round" stroke-linejoin="round"/>
</g>
</g>
<g id="Group 19">
<path id="Vector_15" d="M75 77H91" stroke="#AAAAAA" stroke-width="3" stroke-linecap="round" stroke-linejoin="bevel"/>
<g id="Group 15_3">
<path id="Vector_16" d="M78 82H91" stroke="#AAAAAA" stroke-width="2" stroke-linecap="round" stroke-linejoin="bevel"/>
<path id="Vector_17" d="M74.0494 83L74.9218 82.1949C75.0261 82.0987 75.0261 81.9418 74.9218 81.8506L74 81" stroke="#AAAAAA" stroke-linecap="round" stroke-linejoin="round"/>
</g>
<g id="Group 16_3">
<path id="Vector_18" d="M78 86H89" stroke="#AAAAAA" stroke-width="2" stroke-linecap="round" stroke-linejoin="bevel"/>
<path id="Vector_19" d="M74.0494 87L74.9218 86.1949C75.0261 86.0987 75.0261 85.9418 74.9218 85.8506L74 85" stroke="#AAAAAA" stroke-linecap="round" stroke-linejoin="round"/>
</g>
</g>
<g id="Group 26">
<rect id="Rectangle 9" opacity="0.15" x="19" y="28" width="30" height="31" rx="2" fill="#AAAAAA"/>
<g id="Group 25">
<path id="Vector_20" d="M33 55H42" stroke="#AAAAAA" stroke-width="2" stroke-linecap="round" stroke-linejoin="bevel"/>
<path id="Vector_21" d="M23 55H30" stroke="#AAAAAA" stroke-width="2" stroke-linecap="round" stroke-linejoin="bevel"/>
</g>
<path id="Vector_22" d="M23 51H31" stroke="#AAAAAA" stroke-width="3" stroke-linecap="round" stroke-linejoin="bevel"/>
<g id="Group" opacity="0.75">
<path id="Vector_23" d="M45.6366 30H22.047C21.4688 30 21 30.4688 21 31.047V45.953C21 46.5312 21.4688 47 22.047 47H45.6366C46.2148 47 46.6836 46.5312 46.6836 45.953V31.047C46.6836 30.4688 46.2148 30 45.6366 30Z" fill="white"/>
<path id="Vector_24" opacity="0.66" d="M37.3004 38.1378C38.4432 38.1378 39.3696 37.2114 39.3696 36.0686C39.3696 34.9258 38.4432 33.9994 37.3004 33.9994C36.1576 33.9994 35.2312 34.9258 35.2312 36.0686C35.2312 37.2114 36.1576 38.1378 37.3004 38.1378Z" fill="#AAAAAA"/>
<path id="Vector_25" opacity="0.65" d="M33.167 47L38.7344 41.4028C39.4837 40.6486 40.7043 40.6486 41.4536 41.4028L45.4232 45.3923L46.5496 46.479C46.371 46.7866 46.0336 46.995 45.6515 46.995H33.157" fill="#AAAAAA"/>
<path id="Vector_26" d="M38.5161 47H22.1016C21.4912 47 21 46.5038 21 45.8984V44.4644C21 44.4644 21.005 44.4346 21.0149 44.4247L21.2233 44.2212L27.009 38.4355C27.8576 37.587 29.232 37.587 30.0806 38.4355L38.6401 46.995H38.5111L38.5161 47Z" fill="#AAAAAA"/>
</g>
</g>
<g id="Group 27">
<rect id="Rectangle 9_2" opacity="0.15" x="52" y="28" width="30" height="31" rx="2" fill="#AAAAAA"/>
<g id="Group 25_2">
<path id="Vector_27" d="M66 55H75" stroke="#AAAAAA" stroke-width="2" stroke-linecap="round" stroke-linejoin="bevel"/>
<path id="Vector_28" d="M56 55H63" stroke="#AAAAAA" stroke-width="2" stroke-linecap="round" stroke-linejoin="bevel"/>
</g>
<path id="Vector_29" d="M56 51H64" stroke="#AAAAAA" stroke-width="3" stroke-linecap="round" stroke-linejoin="bevel"/>
<g id="Group_2" opacity="0.75">
<path id="Vector_30" d="M78.6366 30H55.047C54.4688 30 54 30.4688 54 31.047V45.953C54 46.5312 54.4688 47 55.047 47H78.6366C79.2148 47 79.6836 46.5312 79.6836 45.953V31.047C79.6836 30.4688 79.2148 30 78.6366 30Z" fill="white"/>
<path id="Vector_31" opacity="0.66" d="M70.3004 38.1378C71.4432 38.1378 72.3696 37.2114 72.3696 36.0686C72.3696 34.9258 71.4432 33.9994 70.3004 33.9994C69.1576 33.9994 68.2312 34.9258 68.2312 36.0686C68.2312 37.2114 69.1576 38.1378 70.3004 38.1378Z" fill="#AAAAAA"/>
<path id="Vector_32" opacity="0.65" d="M66.167 47L71.7344 41.4028C72.4837 40.6486 73.7043 40.6486 74.4536 41.4028L78.4232 45.3923L79.5496 46.479C79.371 46.7866 79.0336 46.995 78.6515 46.995H66.157" fill="#AAAAAA"/>
<path id="Vector_33" d="M71.5161 47H55.1016C54.4912 47 54 46.5038 54 45.8984V44.4644C54 44.4644 54.005 44.4346 54.0149 44.4247L54.2233 44.2212L60.009 38.4355C60.8576 37.587 62.232 37.587 63.0806 38.4355L71.6401 46.995H71.5111L71.5161 47Z" fill="#AAAAAA"/>
</g>
</g>
<g id="Group 28">
<rect id="Rectangle 9_3" opacity="0.15" x="85" y="28" width="30" height="31" rx="2" fill="#AAAAAA"/>
<g id="Group 25_3">
<path id="Vector_34" d="M99 55H108" stroke="#AAAAAA" stroke-width="2" stroke-linecap="round" stroke-linejoin="bevel"/>
<path id="Vector_35" d="M89 55H96" stroke="#AAAAAA" stroke-width="2" stroke-linecap="round" stroke-linejoin="bevel"/>
</g>
<path id="Vector_36" d="M89 51H97" stroke="#AAAAAA" stroke-width="3" stroke-linecap="round" stroke-linejoin="bevel"/>
<g id="Group_3" opacity="0.75">
<path id="Vector_37" d="M111.637 30H88.047C87.4688 30 87 30.4688 87 31.047V45.953C87 46.5312 87.4688 47 88.047 47H111.637C112.215 47 112.684 46.5312 112.684 45.953V31.047C112.684 30.4688 112.215 30 111.637 30Z" fill="white"/>
<path id="Vector_38" opacity="0.66" d="M103.3 38.1378C104.443 38.1378 105.37 37.2114 105.37 36.0686C105.37 34.9258 104.443 33.9994 103.3 33.9994C102.158 33.9994 101.231 34.9258 101.231 36.0686C101.231 37.2114 102.158 38.1378 103.3 38.1378Z" fill="#AAAAAA"/>
<path id="Vector_39" opacity="0.65" d="M99.167 47L104.734 41.4028C105.484 40.6486 106.704 40.6486 107.454 41.4028L111.423 45.3923L112.55 46.479C112.371 46.7866 112.034 46.995 111.651 46.995H99.157" fill="#AAAAAA"/>
<path id="Vector_40" d="M104.516 47H88.1016C87.4912 47 87 46.5038 87 45.8984V44.4644C87 44.4644 87.005 44.4346 87.0149 44.4247L87.2233 44.2212L93.009 38.4355C93.8576 37.587 95.232 37.587 96.0806 38.4355L104.64 46.995H104.511L104.516 47Z" fill="#AAAAAA"/>
</g>
</g>
</g>
</g>
</svg>

<svg xmlns="http://www.w3.org/2000/svg" fill="none" viewBox="0 0 150 100"><rect width="113" height="20" x="19" y="71" fill="#AAA" opacity=".25" rx="2"/><rect width="113" height="12" x="19" y="10" fill="#AAA" opacity=".55" rx="2"/><path stroke="#AAA" stroke-linecap="round" stroke-linejoin="bevel" stroke-width="4" d="M40 16h11m13 0h14m11 0h13"/><path fill="#AAA" d="M29 19a3 3 0 1 0 0-6 3 3 0 0 0 0 6"/><g stroke="#AAA" stroke-linecap="round"><path stroke-linejoin="bevel" stroke-width="3" d="M25 77h16"/><path stroke-linejoin="bevel" stroke-width="2" d="M28 82h13"/><path stroke-linejoin="round" d="m24.05 83 .872-.805a.23.23 0 0 0 0-.344L24 81"/><path stroke-linejoin="bevel" stroke-width="2" d="M28 86h11"/><path stroke-linejoin="round" d="m24.05 87 .872-.805a.23.23 0 0 0 0-.344L24 85"/></g><g stroke="#AAA" stroke-linecap="round"><path stroke-linejoin="bevel" stroke-width="3" d="M50 77h16"/><path stroke-linejoin="bevel" stroke-width="2" d="M53 82h13"/><path stroke-linejoin="round" d="m49.05 83 .872-.805a.23.23 0 0 0 0-.344L49 81"/><path stroke-linejoin="bevel" stroke-width="2" d="M53 86h11"/><path stroke-linejoin="round" d="m49.05 87 .872-.805a.23.23 0 0 0 0-.344L49 85"/></g><g stroke="#AAA" stroke-linecap="round"><path stroke-linejoin="bevel" stroke-width="3" d="M75 77h16"/><path stroke-linejoin="bevel" stroke-width="2" d="M78 82h13"/><path stroke-linejoin="round" d="m74.05 83 .872-.805a.23.23 0 0 0 0-.344L74 81"/><path stroke-linejoin="bevel" stroke-width="2" d="M78 86h11"/><path stroke-linejoin="round" d="m74.05 87 .872-.805a.23.23 0 0 0 0-.344L74 85"/></g><rect width="30" height="31" x="19" y="28" fill="#AAA" opacity=".15" rx="2"/><path stroke="#AAA" stroke-linecap="round" stroke-linejoin="bevel" stroke-width="2" d="M33 55h9m-19 0h7"/><path stroke="#AAA" stroke-linecap="round" stroke-linejoin="bevel" stroke-width="3" d="M23 51h8"/><g opacity=".75"><path fill="#fff" d="M45.637 30h-23.59c-.578 0-1.047.469-1.047 1.047v14.906c0 .578.469 1.047 1.047 1.047h23.59c.578 0 1.047-.469 1.047-1.047V31.047c0-.578-.47-1.047-1.047-1.047"/><path fill="#AAA" d="M37.3 38.138a2.07 2.07 0 1 0 0-4.139 2.07 2.07 0 0 0 0 4.139" opacity=".66"/><path fill="#AAA" d="m33.167 47 5.567-5.597a1.917 1.917 0 0 1 2.72 0l3.97 3.99 1.126 1.086a1.04 1.04 0 0 1-.898.516H33.157" opacity=".65"/><path fill="#AAA" d="M38.516 47H22.102c-.61 0-1.102-.496-1.102-1.102v-1.434s.005-.03.015-.04l.208-.203 5.786-5.785a2.17 2.17 0 0 1 3.072 0l8.56 8.559h-.13z"/></g><rect width="30" height="31" x="52" y="28" fill="#AAA" opacity=".15" rx="2"/><path stroke="#AAA" stroke-linecap="round" stroke-linejoin="bevel" stroke-width="2" d="M66 55h9m-19 0h7"/><path stroke="#AAA" stroke-linecap="round" stroke-linejoin="bevel" stroke-width="3" d="M56 51h8"/><g opacity=".75"><path fill="#fff" d="M78.637 30h-23.59c-.578 0-1.047.469-1.047 1.047v14.906c0 .578.469 1.047 1.047 1.047h23.59c.578 0 1.047-.469 1.047-1.047V31.047c0-.578-.47-1.047-1.047-1.047"/><path fill="#AAA" d="M70.3 38.138a2.07 2.07 0 1 0 0-4.139 2.07 2.07 0 0 0 0 4.139" opacity=".66"/><path fill="#AAA" d="m66.167 47 5.567-5.597a1.917 1.917 0 0 1 2.72 0l3.97 3.99 1.126 1.086a1.04 1.04 0 0 1-.898.516H66.157" opacity=".65"/><path fill="#AAA" d="M71.516 47H55.102c-.61 0-1.102-.496-1.102-1.102v-1.434s.005-.03.015-.04l.208-.203 5.786-5.785a2.17 2.17 0 0 1 3.072 0l8.56 8.559h-.13z"/></g><rect width="30" height="31" x="85" y="28" fill="#AAA" opacity=".15" rx="2"/><path stroke="#AAA" stroke-linecap="round" stroke-linejoin="bevel" stroke-width="2" d="M99 55h9m-19 0h7"/><path stroke="#AAA" stroke-linecap="round" stroke-linejoin="bevel" stroke-width="3" d="M89 51h8"/><g opacity=".75"><path fill="#fff" d="M111.637 30h-23.59c-.578 0-1.047.469-1.047 1.047v14.906c0 .578.469 1.047 1.047 1.047h23.59c.578 0 1.047-.469 1.047-1.047V31.047c0-.578-.469-1.047-1.047-1.047"/><path fill="#AAA" d="M103.3 38.138a2.07 2.07 0 1 0 0-4.14 2.07 2.07 0 0 0 0 4.14" opacity=".66"/><path fill="#AAA" d="m99.167 47 5.567-5.597a1.92 1.92 0 0 1 2.72 0l3.969 3.99 1.127 1.086a1.04 1.04 0 0 1-.899.516H99.157" opacity=".65"/><path fill="#AAA" d="M104.516 47H88.102c-.61 0-1.102-.496-1.102-1.102v-1.434s.005-.03.015-.04l.208-.203 5.786-5.785a2.17 2.17 0 0 1 3.072 0l8.559 8.559h-.129z"/></g></svg>
